X:297
T:Flanagan's Jig
B:Kerr's Merry Melodies Bk 3
N:Slightly evolved over time
Z:Nigel Gatherer <gatherer@argonet.co.uk>
M:6/8
L:1/8
K:D
Add Bdd|Add Bdd|ABc def|gee e3|Add Bdd|Add Bdd|
ABc def|edd d3||dfa agf|ged cBA|dfa agf|gab a2 f|
gbg faf|efd cBA|ABc def|edd d3|]
<end>
<start>
